img/icon_pregnant.svg

<svg width="31" height="31" viewBox="0 0 31 31" fill="none" xmlns="http://www.w3.org/2000/svg">
<g clip-path="url(#clip0)">
<path d="M9.44954 26.2644C8.92354 27.5284 8.63766 28.8793 8.60654 30.2479C8.60654 30.5241 8.8304 30.7479 9.10654 30.7479H24.1065C24.2535 30.7479 24.3931 30.6832 24.4881 30.5709C24.583 30.4587 24.6238 30.3104 24.5995 30.1654C24.5585 29.9154 23.5645 24.0454 21.554 20.0249C21.0942 19.0059 20.8606 17.8994 20.869 16.7814C21.9268 16.9922 22.995 17.1475 24.069 17.2464L24.1065 17.2479C24.3359 17.2479 24.5358 17.0919 24.5915 16.8694C25.397 13.6489 25.251 9.18993 25.1545 6.23943C25.129 5.45443 25.1045 4.77343 25.1045 4.25943C25.1031 3.2737 24.7188 2.32708 24.0325 1.61943C23.5294 1.07344 22.8239 0.758313 22.0815 0.747931H16.19C15.6642 0.746417 15.1764 1.02212 14.9065 1.47343C14.2429 2.60984 13.3413 3.58924 12.2635 4.34443C11.9987 4.51945 11.7165 4.66672 11.4215 4.78393C10.2321 5.24779 9.47501 6.42311 9.54454 7.69793C9.57843 8.64295 9.99086 9.53466 10.689 10.1724C10.5845 10.2097 10.4823 10.2533 10.383 10.3029C9.76965 10.5989 9.3229 11.1563 9.16754 11.8194C6.84979 13.3466 5.4992 15.9744 5.60654 18.7479C5.60654 22.8979 7.60904 25.1084 9.44954 26.2644ZM15.7615 1.99093C15.8518 1.84031 16.0144 1.74807 16.19 1.74793H18.573C18.469 2.71643 18.023 4.74793 16.1065 4.74793C15.2914 4.74753 14.4782 4.67036 13.6775 4.51743C14.4933 3.78294 15.1956 2.93151 15.7615 1.99093ZM10.544 7.66393C10.4871 6.81123 10.9919 6.02078 11.7895 5.71393C12.0736 5.59795 12.3477 5.45882 12.609 5.29793C13.7517 5.59671 14.9279 5.74794 16.109 5.74793C18.6045 5.74793 19.4425 3.35943 19.584 1.74793H20.4795C19.6805 5.04544 19.5186 8.46519 20.0025 11.8234C19.2287 11.6741 18.4455 11.5777 17.6585 11.5349C17.0205 11.516 16.3863 11.4284 15.767 11.2734C15.347 11.1334 14.917 10.9569 14.505 10.7864C13.8551 10.4934 13.1794 10.2614 12.4865 10.0934C11.3912 9.77463 10.614 8.80253 10.544 7.66393ZM10.83 11.1954C11.2614 10.9963 11.747 10.9472 12.2095 11.0559C12.2505 11.0695 12.293 11.0781 12.336 11.0814C12.9477 11.2408 13.5448 11.4513 14.121 11.7109C14.551 11.8879 14.9955 12.0714 15.4485 12.2224C16.1454 12.4068 16.861 12.5106 17.5815 12.5319C19.006 12.6384 20.6215 12.7589 21.8065 13.6479C21.9494 13.7551 22.1387 13.7779 22.3029 13.7077C22.4672 13.6376 22.5816 13.4851 22.603 13.3077C22.6243 13.1304 22.5494 12.9551 22.4065 12.8479C21.9973 12.5479 21.547 12.3083 21.0695 12.1364C20.4927 8.68094 20.6405 5.14326 21.5035 1.74793H22.0815C22.5544 1.76296 23.0009 1.96876 23.3195 2.31843C23.816 2.8392 24.0972 3.52848 24.1065 4.24793C24.1065 4.78193 24.129 5.47443 24.1565 6.27193C24.247 9.03793 24.3815 13.1544 23.721 16.2064C22.2065 16.0369 16.937 15.2979 12.4015 12.8394C11.7868 12.2969 11.0332 11.9363 10.225 11.7979C10.3527 11.535 10.5661 11.3234 10.83 11.1979V11.1954ZM9.59904 12.7479H9.60654C10.4005 12.7696 11.161 13.072 11.753 13.6014C11.7869 13.6351 11.8253 13.6638 11.867 13.6869C14.3851 15.0106 17.0736 15.9811 19.8565 16.5709C19.8241 17.9148 20.0977 19.2484 20.6565 20.4709C22.243 23.6389 23.201 28.1554 23.5065 29.7479H9.63204C9.70897 28.7178 9.94511 27.7058 10.332 26.7479C11.8811 27.4683 13.5708 27.8354 15.279 27.8229C15.7418 27.823 16.2042 27.7973 16.664 27.7459C16.8416 27.7261 16.9951 27.6131 17.0667 27.4494C17.1383 27.2857 17.1172 27.0962 17.0112 26.9524C16.9053 26.8085 16.7306 26.7321 16.553 26.7519C14.4171 27.0156 12.2515 26.6253 10.342 25.6324C8.63704 24.6824 6.60654 22.7184 6.60654 18.7479C6.60654 16.1444 7.62104 14.1324 9.59904 12.7479Z" fill="#3C3D75"/>
<path d="M10.8776 22.8658C11.1616 23.1028 11.4636 23.3553 11.7811 23.6273C11.9682 23.7873 12.244 23.7873 12.4311 23.6273C12.7486 23.3553 13.0506 23.1028 13.3346 22.8658C15.0066 21.4728 16.1066 20.5528 16.1066 19.1268C16.13 18.5113 15.9046 17.9122 15.4813 17.4647C15.0581 17.0172 14.4725 16.7588 13.8566 16.7478C13.1946 16.7469 12.5614 17.0191 12.1066 17.5003C11.6518 17.0191 11.0187 16.7469 10.3566 16.7478C9.74074 16.7588 9.15518 17.0172 8.73191 17.4647C8.30865 17.9122 8.08329 18.5113 8.10663 19.1268C8.10663 20.5528 9.20663 21.4728 10.8776 22.8658ZM10.3566 17.7478C10.9033 17.7669 11.3991 18.0734 11.6606 18.5538C11.7457 18.7203 11.9166 18.8255 12.1036 18.8263H12.1066C12.2942 18.8255 12.4657 18.7205 12.5516 18.5538C12.8132 18.073 13.3096 17.7664 13.8566 17.7478C14.2077 17.758 14.5395 17.9108 14.7754 18.1711C15.0112 18.4313 15.1309 18.7764 15.1066 19.1268C15.1066 20.0848 14.1991 20.8428 12.6951 22.0983C12.5066 22.2558 12.3101 22.4193 12.1066 22.5913C11.9031 22.4193 11.7066 22.2558 11.5181 22.0983C10.0141 20.8428 9.10663 20.0848 9.10663 19.1268C9.08239 18.7764 9.20202 18.4313 9.43791 18.1711C9.67379 17.9108 10.0056 17.758 10.3566 17.7478Z" fill="#3C3D75"/>
</g>
<defs>
<clipPath id="clip0">
<rect width="30" height="30" fill="white" transform="translate(0.606445 0.748047)"/>
</clipPath>
</defs>
</svg>

<svg width="31" height="31" fill="none" xmlns="http://www.w3.org/2000/svg"><g clip-path="url(#clip0)" fill="#3C3D75"><path d="M9.45 26.264a11.02 11.02 0 00-.843 3.984.5.5 0 00.5.5h15a.5.5 0 00.492-.583c-.04-.25-1.035-6.12-3.045-10.14a7.744 7.744 0 01-.685-3.244c1.058.211 2.126.367 3.2.465l.038.002a.5.5 0 00.485-.379c.805-3.22.659-7.68.563-10.63-.026-.785-.05-1.466-.05-1.98a3.8 3.8 0 00-1.073-2.64 2.704 2.704 0 00-1.95-.871H16.19a1.49 1.49 0 00-1.284.725 9.123 9.123 0 01-2.643 2.871 4.623 4.623 0 01-.841.44 2.955 2.955 0 00-1.877 2.914 3.522 3.522 0 001.144 2.474 3.053 3.053 0 00-.306.13 2.255 2.255 0 00-1.215 1.517 7.93 7.93 0 00-3.561 6.929c0 4.15 2.002 6.36 3.843 7.516zm6.312-24.273a.5.5 0 01.428-.243h2.383c-.104.968-.55 3-2.466 3a13.03 13.03 0 01-2.43-.23 11.099 11.099 0 002.085-2.527zm-5.218 5.673a1.95 1.95 0 011.245-1.95 5.6 5.6 0 00.82-.416c1.143.299 2.319.45 3.5.45 2.495 0 3.333-2.389 3.475-4h.896a26.647 26.647 0 00-.477 10.075 17.345 17.345 0 00-2.345-.288 8.873 8.873 0 01-1.891-.262c-.42-.14-.85-.316-1.262-.487a11.51 11.51 0 00-2.019-.693 2.703 2.703 0 01-1.942-2.43zm.286 3.531a2.13 2.13 0 011.38-.14.531.531 0 00.126.026c.612.16 1.209.37 1.785.63.43.177.874.36 1.327.511a9.427 9.427 0 002.133.31c1.425.106 3.04.227 4.226 1.116a.5.5 0 10.6-.8c-.41-.3-.86-.54-1.337-.712a25.277 25.277 0 01.433-10.388h.578c.473.015.92.22 1.239.57.496.521.777 1.21.787 1.93 0 .534.022 1.226.05 2.024.09 2.766.224 6.882-.436 9.934-1.515-.17-6.784-.908-11.32-3.367a4.415 4.415 0 00-2.176-1.041c.128-.263.341-.475.605-.6v-.003zm-1.231 1.553h.008a3.358 3.358 0 012.146.853.517.517 0 00.114.086 30.971 30.971 0 007.99 2.884 8.867 8.867 0 00.8 3.9c1.586 3.168 2.544 7.684 2.85 9.277H9.631a10 10 0 01.7-3c1.55.72 3.239 1.087 4.947 1.075.463 0 .925-.026 1.385-.077a.5.5 0 10-.111-.994 10.637 10.637 0 01-6.211-1.12c-1.705-.95-3.735-2.914-3.735-6.884 0-2.604 1.014-4.616 2.992-6z"/><path d="M10.878 22.866c.284.237.586.49.903.761a.5.5 0 00.65 0c.318-.272.62-.524.904-.761 1.672-1.393 2.772-2.313 2.772-3.74a2.292 2.292 0 00-2.25-2.378 2.402 2.402 0 00-1.75.752 2.403 2.403 0 00-1.75-.752 2.293 2.293 0 00-2.25 2.379c0 1.426 1.1 2.346 2.77 3.739zm-.521-5.118a1.546 1.546 0 011.304.806.5.5 0 00.443.272h.003a.501.501 0 00.445-.272 1.543 1.543 0 011.305-.806 1.29 1.29 0 011.25 1.379c0 .958-.908 1.716-2.412 2.971-.188.158-.385.321-.588.493l-.589-.493c-1.504-1.255-2.411-2.013-2.411-2.971a1.29 1.29 0 011.25-1.38z"/></g><defs><clipPath id="clip0"><path fill="#fff" transform="translate(.606 .748)" d="M0 0h30v30H0z"/></clipPath></defs></svg>
